X:8003
T:Haste to the Wedding
T:Small Pin Cushion
T:Carrick Fergus
R:Jig
C:James Oswald, 1750
O:Scotland
M:6/8
L:1/8
Q:1/8=180
K:D
F/G/|"D"A>BA Agf|"G"ede "A7"fdB|"D"A>BA "Bm"AdF|"Em"GFG "A7"EFG|
"D"A>BA Aaf|"G"ede "A7"fdB|"D"A>BA "A7"faf|"D"d>ed d2:|
|:f/g/|"D"a>fa afa|"G"b>gb "(A7)"bag|"D"fga "Bm"agf|"Em"g>fg "A7"efg|
"D"az2 "Bm"f2f|"Em"ede "A7"fdB|"D"A>BA "A7"faf|"D"d>ed d2:|

